client/src/assets/icons/work.svg

<svg width="58" height="58" viewBox="0 0 58 58" fill="none" xmlns="http://www.w3.org/2000/svg">
<path d="M11.1553 48.3334C10.0421 48.3334 9.11325 47.9613 8.36892 47.2169C7.62458 46.4726 7.25161 45.543 7.25 44.4281V20.8221C7.25 19.7088 7.62297 18.78 8.36892 18.0357C9.11486 17.2913 10.0429 16.9184 11.1529 16.9168H21.75V13.5697C21.75 12.458 22.123 11.5292 22.8689 10.7833C23.6149 10.0373 24.5437 9.66514 25.6553 9.66675H32.3471C33.4588 9.66675 34.3876 10.0389 35.1335 10.7833C35.8794 11.5276 36.2516 12.4564 36.25 13.5697V16.9168H46.8471C47.9588 16.9168 48.8868 17.2897 49.6311 18.0357C50.3754 18.7816 50.7484 19.7104 50.75 20.8221V44.4305C50.75 45.5422 50.377 46.471 49.6311 47.2169C48.8851 47.9629 47.9571 48.335 46.8471 48.3334H11.1553ZM24.1667 16.9168H33.8333V13.5697C33.8333 13.1991 33.6787 12.8584 33.3693 12.5474C33.06 12.2365 32.7193 12.0818 32.3471 12.0834H25.6529C25.2824 12.0834 24.9416 12.2381 24.6307 12.5474C24.3197 12.8568 24.1651 13.1975 24.1667 13.5697V16.9168Z" fill="#011034"/>
</svg>

<svg xmlns="http://www.w3.org/2000/svg" width="58" height="58" fill="none" viewBox="0 0 58 58">
  <path fill="#011034" d="M11.155 48.333c-1.113 0-2.042-.372-2.786-1.116-.744-.744-1.117-1.674-1.119-2.789V20.822c0-1.113.373-2.042 1.119-2.786.746-.745 1.674-1.118 2.784-1.12H21.75V13.57c0-1.112.373-2.04 1.119-2.787.746-.746 1.675-1.118 2.786-1.116h6.692c1.112 0 2.04.372 2.786 1.116.746.745 1.119 1.673 1.117 2.787v3.347h10.597c1.112 0 2.04.373 2.784 1.119.744.746 1.117 1.674 1.119 2.786v23.609c0 1.111-.373 2.04-1.119 2.786s-1.674 1.118-2.784 1.116H11.155Zm13.012-31.416h9.666V13.57c0-.37-.154-.712-.464-1.023-.309-.31-.65-.465-1.022-.464h-6.694c-.37 0-.711.155-1.022.464-.311.31-.466.65-.464 1.023v3.347Z"/>
</svg>
